Newaita-dark/actions/22/view-fullscreen.svg

<?xml version="1.0" encoding="UTF-8"?>
<svg xmlns="http://www.w3.org/2000/svg" xmlns:xlink="http://www.w3.org/1999/xlink" width="22pt" height="22pt" viewBox="0 0 22 22" version="1.1">
<g id="surface1">
<path style=" stroke:none;fill-rule:nonzero;fill:rgb(74.117649%,74.117649%,74.117649%);fill-opacity:1;" d="M 5.457031 4.71875 C 4.953125 4.71875 4.546875 5.125 4.546875 5.628906 L 4.546875 16.542969 C 4.546875 17.046875 4.953125 17.453125 5.457031 17.453125 L 16.371094 17.453125 C 16.875 17.453125 17.28125 17.046875 17.28125 16.542969 L 17.28125 5.628906 C 17.28125 5.125 16.875 4.71875 16.371094 4.71875 Z M 5.914062 8.8125 L 15.917969 8.8125 L 15.917969 15.40625 C 15.917969 15.785156 15.613281 16.089844 15.234375 16.089844 L 6.59375 16.089844 C 6.214844 16.089844 5.914062 15.785156 5.914062 15.40625 Z M 5.914062 8.8125 "/>
<path style=" stroke:none;fill-rule:nonzero;fill:rgb(14.901961%,77.64706%,85.490197%);fill-opacity:0.996078;" d="M 2.730469 1.082031 C 1.722656 1.082031 0.910156 1.894531 0.910156 2.902344 L 0.910156 5.628906 C 0.910156 5.882812 1.207031 6.085938 1.578125 6.085938 L 1.605469 6.085938 C 1.976562 6.085938 2.273438 5.882812 2.273438 5.628906 L 2.273438 3.355469 C 2.273438 2.851562 2.679688 2.445312 3.183594 2.445312 L 5.457031 2.445312 C 5.710938 2.445312 5.914062 2.140625 5.914062 1.765625 C 5.914062 1.386719 5.710938 1.082031 5.457031 1.082031 Z M 16.371094 1.082031 C 16.121094 1.082031 15.917969 1.386719 15.917969 1.765625 C 15.917969 2.140625 16.121094 2.445312 16.371094 2.445312 L 18.648438 2.445312 C 19.152344 2.445312 19.554688 2.851562 19.554688 3.355469 L 19.554688 5.628906 C 19.554688 5.882812 19.859375 6.085938 20.238281 6.085938 C 20.617188 6.085938 20.921875 5.882812 20.921875 5.628906 L 20.921875 2.902344 C 20.921875 1.894531 20.109375 1.082031 19.101562 1.082031 Z M 1.578125 16.089844 C 1.207031 16.089844 0.910156 16.292969 0.910156 16.542969 L 0.910156 19.273438 C 0.910156 20.28125 1.722656 21.09375 2.730469 21.09375 L 5.457031 21.09375 C 5.710938 21.09375 5.914062 20.789062 5.914062 20.410156 C 5.914062 20.03125 5.710938 19.726562 5.457031 19.726562 L 3.183594 19.726562 C 2.679688 19.726562 2.273438 19.324219 2.273438 18.820312 L 2.273438 16.542969 C 2.273438 16.292969 1.976562 16.089844 1.605469 16.089844 Z M 20.238281 16.089844 C 19.859375 16.089844 19.554688 16.292969 19.554688 16.542969 L 19.554688 18.820312 C 19.554688 19.324219 19.152344 19.726562 18.648438 19.726562 L 16.371094 19.726562 C 16.121094 19.726562 15.917969 20.03125 15.917969 20.410156 C 15.917969 20.789062 16.121094 21.09375 16.371094 21.09375 L 19.101562 21.09375 C 20.109375 21.09375 20.921875 20.28125 20.921875 19.273438 L 20.921875 16.542969 C 20.921875 16.292969 20.617188 16.089844 20.238281 16.089844 Z M 20.238281 16.089844 "/>
</g>
</svg>

<svg xmlns="http://www.w3.org/2000/svg" width="22pt" height="22pt" viewBox="0 0 22 22"><path d="M5.457 4.719a.909.909 0 0 0-.91.91v10.914c0 .504.406.91.91.91h10.914c.504 0 .91-.406.91-.91V5.629a.909.909 0 0 0-.91-.91zm.457 4.093h10.004v6.594a.682.682 0 0 1-.684.684h-8.64a.679.679 0 0 1-.68-.684zm0 0" fill="#bdbdbd"/><path d="M2.73 1.082c-1.007 0-1.82.813-1.82 1.82V5.63c0 .254.297.457.668.457h.027c.372 0 .668-.203.668-.457V3.355c0-.503.407-.91.91-.91h2.274c.254 0 .457-.304.457-.68 0-.378-.203-.683-.457-.683zm13.641 0c-.25 0-.453.305-.453.684 0 .375.203.68.453.68h2.277c.504 0 .907.406.907.91v2.273c0 .254.304.457.683.457.38 0 .684-.203.684-.457V2.902c0-1.007-.813-1.82-1.82-1.82zM1.578 16.09c-.371 0-.668.203-.668.453v2.73c0 1.008.813 1.82 1.82 1.82h2.727c.254 0 .457-.304.457-.683 0-.379-.203-.683-.457-.683H3.184a.905.905 0 0 1-.91-.907v-2.277c0-.25-.297-.453-.669-.453zm18.66 0c-.379 0-.683.203-.683.453v2.277a.902.902 0 0 1-.907.907h-2.277c-.25 0-.453.304-.453.683 0 .38.203.684.453.684h2.73c1.008 0 1.82-.813 1.82-1.82v-2.731c0-.25-.304-.453-.683-.453zm0 0" fill="#26c6da" fill-opacity=".996"/></svg>
